src/assets/images/notfound_bg.svg

<svg fill="none" height="1940" viewBox="0 0 1843 1940" width="1843" xmlns="http://www.w3.org/2000/svg" xmlns:xlink="http://www.w3.org/1999/xlink"><linearGradient id="a" gradientUnits="userSpaceOnUse" x1="1351.28" x2="319.521" y1="1360.8" y2="1010.63"><stop offset="0" stop-color="#1c25ff"/><stop offset="1" stop-color="#db00ff"/></linearGradient><linearGradient id="b" gradientUnits="userSpaceOnUse" x1="514.791" x2="781.36" y1="390.643" y2="1900.55"><stop offset="0" stop-color="#db00ff"/><stop offset="1" stop-color="#ffc200"/></linearGradient><g clip-rule="evenodd" fill-rule="evenodd"><path d="m1042.78 1462.29c-103.965 25.13-215.309-45.61-314.305-110.96-89.207-58.9-181.437-131.88-207.194-233.33-23.999-94.52 37.564-171.732 85.556-245.757 38.944-60.07 93.584-99.04 158.078-130.033 83.622-40.186 168.842-116.427 262.135-71.905 94.48 45.087 112.62 170.168 150 268.588 37.03 97.487 85.68 195.947 61.79 289.057-27.33 106.56-90.62 208.85-196.06 234.34z" fill="url(#a)"/><path d="m922.24 928.187c51.71 58.143 46.335 139.563 52.885 217.873 7.083 84.7 33.545 169.45-13.883 248.44-58.444 97.34-148.54 196.7-264.062 214.5-116.642 17.97-228.682-43.84-287.903-129.46-49.868-72.09 25.634-171.77 18.17-260.5-8.276-98.4-117.294-182.57-63.193-274.765 56.483-96.254 193.249-136.945 306.707-140.216 103.834-2.994 189.194 54.319 251.279 124.128z" fill="url(#b)"/><g fill="#fff" fill-opacity=".16"><path d="m994.749 686.948c38.001-120.313 162.321-156.88 256.511-212.348 90.12-53.065 188.74-133.04 266.82-95.82 76.89 36.657 74.25 168.631 97.44 269.464 23.14 100.659 80.09 197.235 35.28 307.658-44.98 110.848-153.34 147.008-241.85 201.388-87.33 53.67-185.95 148.74-259.09 106.42-72.15-41.74-30.66-192.8-56.54-289.012-28-104.141-136.36-168.093-98.571-287.75z"/><path d="m1155.13 1426.3c-30.67 72.88-134.91 65.9-213.599 79.69-75.275 13.2-157.42 42.69-223.546-3.06-65.128-45.05-64.341-135.08-84.962-210.37-20.585-75.16-69.575-156.25-33.063-220.57 36.651-64.57 127.47-61.43 201.381-75.951 72.928-14.324 154.898-54.197 216.939-6.217 61.18 47.318 27.91 140.428 50.74 213.238 24.71 78.81 116.62 150.76 86.11 223.24z"/></g></g></svg>

<svg width="1843" height="1940" viewBox="0 0 1843 1940" fill="none" xmlns="http://www.w3.org/2000/svg">
<path fill-rule="evenodd" clip-rule="evenodd" d="M1042.78 1462.29C938.815 1487.42 827.471 1416.68 728.475 1351.33C639.268 1292.43 547.038 1219.45 521.281 1118C497.282 1023.48 558.845 946.268 606.837 872.243C645.781 812.173 700.421 773.203 764.915 742.21C848.537 702.024 933.757 625.783 1027.05 670.305C1121.53 715.392 1139.67 840.473 1177.05 938.893C1214.08 1036.38 1262.73 1134.84 1238.84 1227.95C1211.51 1334.51 1148.22 1436.8 1042.78 1462.29Z" fill="url(#paint0_linear_302_2)"/>
<path fill-rule="evenodd" clip-rule="evenodd" d="M922.24 928.187C973.95 986.33 968.575 1067.75 975.125 1146.06C982.208 1230.76 1008.67 1315.51 961.242 1394.5C902.798 1491.84 812.702 1591.2 697.18 1609C580.538 1626.97 468.498 1565.16 409.277 1479.54C359.409 1407.45 434.911 1307.77 427.447 1219.04C419.171 1120.64 310.153 1036.47 364.254 944.275C420.737 848.021 557.503 807.33 670.961 804.059C774.795 801.065 860.155 858.378 922.24 928.187Z" fill="url(#paint1_linear_302_2)"/>
<path fill-rule="evenodd" clip-rule="evenodd" d="M994.749 686.948C1032.75 566.635 1157.07 530.068 1251.26 474.6C1341.38 421.535 1440 341.56 1518.08 378.78C1594.97 415.437 1592.33 547.411 1615.52 648.244C1638.66 748.903 1695.61 845.479 1650.8 955.902C1605.82 1066.75 1497.46 1102.91 1408.95 1157.29C1321.62 1210.96 1223 1306.03 1149.86 1263.71C1077.71 1221.97 1119.2 1070.91 1093.32 974.698C1065.32 870.557 956.96 806.605 994.749 686.948Z" fill="white" fill-opacity="0.16"/>
<path fill-rule="evenodd" clip-rule="evenodd" d="M1155.13 1426.3C1124.46 1499.18 1020.22 1492.2 941.531 1505.99C866.256 1519.19 784.111 1548.68 717.985 1502.93C652.857 1457.88 653.644 1367.85 633.023 1292.56C612.438 1217.4 563.448 1136.31 599.96 1071.99C636.611 1007.42 727.43 1010.56 801.341 996.039C874.269 981.715 956.239 941.842 1018.28 989.822C1079.46 1037.14 1046.19 1130.25 1069.02 1203.06C1093.73 1281.87 1185.64 1353.82 1155.13 1426.3Z" fill="white" fill-opacity="0.16"/>
<defs>
<linearGradient id="paint0_linear_302_2" x1="1351.28" y1="1360.8" x2="319.521" y2="1010.63" gradientUnits="userSpaceOnUse">
<stop stop-color="#1C25FF"/>
<stop offset="1" stop-color="#DB00FF"/>
</linearGradient>
<linearGradient id="paint1_linear_302_2" x1="514.791" y1="390.643" x2="781.36" y2="1900.55" gradientUnits="userSpaceOnUse">
<stop stop-color="#DB00FF"/>
<stop offset="1" stop-color="#FFC200"/>
</linearGradient>
</defs>
</svg>
